packages/usa-icon/src/img/material-icons/emoji_objects.svg

<svg xmlns="http://www.w3.org/2000/svg" height="24" viewBox="0 0 24 24" width="24"><path fill="none" d="M0 0h24v24H0z"/><path d="M12 3c-.46 0-.93.04-1.4.14-2.76.53-4.96 2.76-5.48 5.52-.48 2.61.48 5.01 2.22 6.56.43.38.66.91.66 1.47V19c0 1.1.9 2 2 2h.28a1.98 1.98 0 0 0 3.44 0H14c1.1 0 2-.9 2-2v-2.31c0-.55.22-1.09.64-1.46A6.956 6.956 0 0 0 19 10c0-3.87-3.13-7-7-7zm2 16h-4v-1h4v1zm0-2h-4v-1h4v1zm-1.5-5.59V14h-1v-2.59L9.67 9.59l.71-.71L12 10.5l1.62-1.62.71.71-1.83 1.82z"/></svg>

<svg xmlns="http://www.w3.org/2000/svg" enable-background="new 0 0 24 24" height="24" viewBox="0 0 24 24" width="24"><g><rect fill="none" height="24" width="24"/></g><g><g/><path d="M12,3c-0.46,0-0.93,0.04-1.4,0.14C7.84,3.67,5.64,5.9,5.12,8.66c-0.48,2.61,0.48,5.01,2.22,6.56C7.77,15.6,8,16.13,8,16.69 V19c0,1.1,0.9,2,2,2h0.28c0.35,0.6,0.98,1,1.72,1s1.38-0.4,1.72-1H14c1.1,0,2-0.9,2-2v-2.31c0-0.55,0.22-1.09,0.64-1.46 C18.09,13.95,19,12.08,19,10C19,6.13,15.87,3,12,3z M14,19h-4v-1h4V19z M14,17h-4v-1h4V17z M12.5,11.41V14h-1v-2.59L9.67,9.59 l0.71-0.71L12,10.5l1.62-1.62l0.71,0.71L12.5,11.41z"/></g></svg>
